X:126
T:Brian O'Lynn
R:jig
H:See also #45, #134
D:Patrick Street: Irish Times
Z:id:hn-jig-126
M:6/8
K:Ador
cBc A2G | EcB cde | dcA A2G | Ade fed |
cBc A2G | EcB cde | dcA AGE |1 GED D2B :|2 GED D2f ||
|: ~g3 ged | cAB c2d | e2a age | ed^c def |
[1 ~g3 ged | cAB cde | fed cAG | EAG A2f :|
[2 gba ged | cAB cde | fed cAG | EAG A2B || 
P:Version 2:
|: cBc A2G | EcB cde | ded cAG | Add ded |
cBc A2G | EcB cde |1 =fed ecA | cAG A2B :|2  =fed e2d | cAG A2f ||
|: gea ged | cAB c2d | eaa age | ed^c def |
gea ged | cAB cde | =fed e2d | cAG A3 :| 
P:Version 3:
|: cBc A2G | EcB cde | dcA A2G | Ade ged |
cBc A2G | EcB cde | dcA AGE |1 GED D2B :|2 GED D2e ||
|: ~g3 ged | cAB c2d | eaa age | edd d2g |
egg ged | cAB cde | dcA AGE |1 GED D2e :|2 GED D2B ||

